x-pack/solutions/observability/plugins/observability_onboarding/public/assets/java.svg

<svg width="24" height="24" viewBox="0 0 24 24" fill="none" xmlns="http://www.w3.org/2000/svg">
<path fill-rule="evenodd" clip-rule="evenodd" d="M8.79677 18.5601C8.79677 18.5601 7.86464 19.0934 9.46083 19.2736C11.3951 19.4908 12.3831 19.4595 14.514 19.0631C14.514 19.0631 15.075 19.4085 15.8581 19.7074C11.0799 21.7207 5.04419 19.5909 8.79677 18.5601ZM8.21267 15.9327C8.21267 15.9327 7.16697 16.6938 8.76457 16.8563C10.8309 17.0661 12.4619 17.0832 15.286 16.5489C15.286 16.5489 15.6759 16.9381 16.2896 17.1507C10.5132 18.8121 4.07988 17.2815 8.21267 15.9327Z" fill="#3174B9"/>
<path fill-rule="evenodd" clip-rule="evenodd" d="M13.1343 11.4754C14.3122 12.8087 12.8256 14.0078 12.8256 14.0078C12.8256 14.0078 15.8151 12.4905 14.442 10.5898C13.16 8.81813 12.1767 7.93796 17.4996 4.90265C17.4994 4.90245 9.14399 6.95386 13.1343 11.4754Z" fill="#CA3132"/>
<path fill-rule="evenodd" clip-rule="evenodd" d="M19.4537 20.504C19.4537 20.504 20.1437 21.0634 18.6937 21.496C15.9364 22.3173 7.21545 22.5649 4.79303 21.5287C3.92286 21.156 5.55549 20.6393 6.06913 20.5302C6.60483 20.4164 6.91055 20.4371 6.91055 20.4371C5.94218 19.7665 0.651323 21.754 4.22351 22.3242C13.9642 23.8774 21.98 21.625 19.4537 20.504ZM9.2451 13.2104C9.2451 13.2104 4.80963 14.2467 7.67463 14.6234C8.88472 14.7825 11.2952 14.7458 13.5423 14.5605C15.3782 14.409 17.221 14.0848 17.221 14.0848C17.221 14.0848 16.5741 14.3578 16.1054 14.672C11.6005 15.8372 2.89923 15.2945 5.40445 14.1033C7.52258 13.0957 9.2451 13.2104 9.2451 13.2104ZM17.2026 17.5839C21.7816 15.2445 19.6645 12.996 18.1863 13.299C17.8249 13.3733 17.6627 13.4374 17.6627 13.4374C17.6627 13.4374 17.7976 13.2299 18.0539 13.1407C20.9776 12.1304 23.2257 16.1215 17.1112 17.7021C17.111 17.7021 17.1815 17.6396 17.2026 17.5839Z" fill="#3174B9"/>
<path fill-rule="evenodd" clip-rule="evenodd" d="M14.442 0C14.442 0 16.9775 2.49481 12.0366 6.32991C8.07427 9.40747 11.1332 11.1617 12.0354 13.1667C9.72209 11.1147 8.02527 9.30792 9.1635 7.62679C10.8346 5.15906 15.4651 3.96232 14.442 0Z" fill="#CA3132"/>
<path fill-rule="evenodd" clip-rule="evenodd" d="M9.69564 23.9247C14.0902 24.201 20.8401 23.7711 21.0002 21.7257C21.0002 21.7257 20.6929 22.501 17.3679 23.1161C13.6165 23.8106 8.98886 23.7297 6.24512 23.2843C6.24512 23.2843 6.80735 23.7419 9.69564 23.9247Z" fill="#3174B9"/>
</svg>

<svg xmlns="http://www.w3.org/2000/svg" width="24" height="24" fill="none"><path fill="#3174B9" fill-rule="evenodd" d="M8.797 18.56s-.932.533.664.714c1.934.217 2.922.185 5.053-.21 0 0 .561.345 1.344.643-4.778 2.014-10.814-.116-7.061-1.147m-.584-2.627s-1.046.76.552.923c2.066.21 3.697.227 6.521-.307 0 0 .39.39 1.004.602-5.777 1.661-12.21.13-8.077-1.218" clip-rule="evenodd"/><path fill="#CA3132" fill-rule="evenodd" d="M13.134 11.475c1.178 1.334-.308 2.533-.308 2.533s2.99-1.517 1.616-3.418C13.16 8.818 12.177 7.938 17.5 4.903c0 0-8.356 2.05-4.366 6.572" clip-rule="evenodd"/><path fill="#3174B9" fill-rule="evenodd" d="M19.454 20.504s.69.56-.76.992c-2.758.821-11.479 1.069-13.901.033-.87-.373.762-.89 1.276-.999.536-.114.842-.093.842-.093-.969-.67-6.26 1.317-2.687 1.887 9.74 1.553 17.756-.699 15.23-1.82M9.245 13.21s-4.435 1.037-1.57 1.413c1.21.16 3.62.123 5.867-.062 1.836-.152 3.679-.476 3.679-.476s-.647.273-1.116.587c-4.504 1.165-13.206.622-10.7-.569 2.118-1.007 3.84-.893 3.84-.893m7.958 4.374c4.579-2.34 2.462-4.588.983-4.285-.361.074-.523.138-.523.138s.135-.207.39-.296c2.925-1.01 5.173 2.98-.942 4.561 0 0 .07-.062.092-.118" clip-rule="evenodd"/><path fill="#CA3132" fill-rule="evenodd" d="M14.442 0s2.535 2.495-2.405 6.33c-3.963 3.077-.904 4.832-.002 6.837-2.313-2.052-4.01-3.86-2.871-5.54 1.67-2.468 6.301-3.665 5.278-7.627" clip-rule="evenodd"/><path fill="#3174B9" fill-rule="evenodd" d="M9.696 23.925c4.394.276 11.144-.154 11.304-2.2 0 0-.307.776-3.632 1.391-3.751.695-8.38.614-11.123.168 0 0 .562.458 3.45.64" clip-rule="evenodd"/></svg>
